packages/foundations/assets/icons/functional/images/environment/sun.svg

<svg xmlns="http://www.w3.org/2000/svg" width="32" height="32" fill="none"><path fill="#1A1C1F" fill-rule="evenodd" d="M15.46 2.179c-.434.276-.444.324-.463 2.221-.019 1.811-.003 1.936.271 2.249a.952.952 0 0 0 1.464 0c.274-.313.29-.438.271-2.249-.015-1.506-.026-1.672-.119-1.861-.246-.495-.936-.669-1.424-.36M6.356 5.928c-.423.209-.638.735-.489 1.199.086.268 2.313 2.539 2.64 2.691.786.367 1.625-.381 1.359-1.212-.085-.267-2.313-2.539-2.639-2.691a.98.98 0 0 0-.871.013m18.417-.013c-.326.152-2.554 2.424-2.639 2.691-.266.831.573 1.579 1.359 1.212.327-.152 2.554-2.423 2.64-2.691.266-.831-.574-1.579-1.36-1.212m-9.866 3.173c-.73.121-1.255.292-1.974.645-1.883.924-3.172 2.502-3.722 4.56-.157.585-.164.663-.167 1.68-.003.992.007 1.107.142 1.642.665 2.62 2.581 4.536 5.199 5.198.529.134.658.146 1.615.145.911 0 1.103-.016 1.547-.125 2.678-.662 4.624-2.608 5.286-5.286.109-.445.125-.635.125-1.547s-.016-1.102-.125-1.547c-.673-2.72-2.703-4.71-5.42-5.31-.516-.114-1.96-.146-2.506-.055m2.357 2.087a5.8 5.8 0 0 1 1.613.732c.313.213 1.003.903 1.216 1.216a6 6 0 0 1 .743 1.639 5.34 5.34 0 0 1 0 2.476 6 6 0 0 1-.742 1.639c-.276.409-1.055 1.13-1.524 1.41a5.4 5.4 0 0 1-2.025.682c-1.043.122-2.188-.128-3.115-.682-.469-.28-1.248-1.001-1.524-1.41a6 6 0 0 1-.742-1.639 5.34 5.34 0 0 1 0-2.476c.608-2.325 2.716-3.87 5.103-3.739.278.016.727.084.997.152M2.792 15.036c-.679.169-.987.899-.625 1.482.284.456.331.466 2.233.485 1.811.019 1.936.003 2.249-.271.424-.373.46-.989.081-1.39-.31-.328-.31-.328-2.117-.338-.909-.006-1.728.009-1.821.032m23.101-.025a2 2 0 0 1-.199.052c-.195.043-.52.335-.609.548a.98.98 0 0 0 .266 1.121c.313.274.438.29 2.249.271 1.902-.019 1.949-.029 2.233-.485a.97.97 0 0 0-.348-1.372l-.232-.133-1.653-.011c-.909-.006-1.677-.002-1.707.009M8.507 22.182c-.327.152-2.554 2.423-2.64 2.691-.266.831.574 1.579 1.36 1.212.326-.152 2.554-2.424 2.639-2.691.266-.831-.573-1.579-1.359-1.212m14.115.012c-.423.21-.637.735-.488 1.2.085.267 2.313 2.539 2.639 2.691.786.367 1.626-.381 1.36-1.212-.086-.268-2.313-2.539-2.64-2.691a.98.98 0 0 0-.871.012m-7.023 2.894c-.217.094-.488.412-.56.658-.039.133-.053.754-.042 1.854.019 1.902.029 1.949.485 2.233.485.301 1.134.13 1.393-.366.105-.201.113-.311.128-1.867.011-1.1-.003-1.721-.042-1.854-.074-.252-.346-.566-.572-.661a1.18 1.18 0 0 0-.79.003"/></svg>

<svg width="32" height="32" viewBox="0 0 32 32" fill="none" xmlns="http://www.w3.org/2000/svg"><path d="M15.460 2.179 C 15.026 2.455,15.016 2.503,14.997 4.400 C 14.978 6.211,14.994 6.336,15.268 6.649 C 15.670 7.107,16.330 7.107,16.732 6.649 C 17.006 6.336,17.022 6.211,17.003 4.400 C 16.988 2.894,16.977 2.728,16.884 2.539 C 16.638 2.044,15.948 1.870,15.460 2.179 M6.356 5.928 C 5.933 6.137,5.718 6.663,5.867 7.127 C 5.953 7.395,8.180 9.666,8.507 9.818 C 9.293 10.185,10.132 9.437,9.866 8.606 C 9.781 8.339,7.553 6.067,7.227 5.915 C 6.944 5.783,6.639 5.788,6.356 5.928 M24.773 5.915 C 24.447 6.067,22.219 8.339,22.134 8.606 C 21.868 9.437,22.707 10.185,23.493 9.818 C 23.820 9.666,26.047 7.395,26.133 7.127 C 26.399 6.296,25.559 5.548,24.773 5.915 M14.907 9.088 C 14.177 9.209,13.652 9.380,12.933 9.733 C 11.050 10.657,9.761 12.235,9.211 14.293 C 9.054 14.878,9.047 14.956,9.044 15.973 C 9.041 16.965,9.051 17.080,9.186 17.615 C 9.851 20.235,11.767 22.151,14.385 22.813 C 14.914 22.947,15.043 22.959,16.000 22.958 C 16.911 22.958,17.103 22.942,17.547 22.833 C 20.225 22.171,22.171 20.225,22.833 17.547 C 22.942 17.102,22.958 16.912,22.958 16.000 C 22.958 15.088,22.942 14.898,22.833 14.453 C 22.160 11.733,20.130 9.743,17.413 9.143 C 16.897 9.029,15.453 8.997,14.907 9.088 M17.264 11.175 C 17.762 11.301,18.433 11.606,18.877 11.907 C 19.190 12.120,19.880 12.810,20.093 13.123 C 20.395 13.568,20.699 14.239,20.836 14.762 C 21.030 15.503,21.030 16.497,20.836 17.238 C 20.700 17.759,20.397 18.427,20.094 18.877 C 19.818 19.286,19.039 20.007,18.570 20.287 C 17.993 20.632,17.230 20.889,16.545 20.969 C 15.502 21.091,14.357 20.841,13.430 20.287 C 12.961 20.007,12.182 19.286,11.906 18.877 C 11.603 18.427,11.300 17.759,11.164 17.238 C 10.970 16.497,10.970 15.503,11.164 14.762 C 11.772 12.437,13.880 10.892,16.267 11.023 C 16.545 11.039,16.994 11.107,17.264 11.175 M2.792 15.036 C 2.113 15.205,1.805 15.935,2.167 16.518 C 2.451 16.974,2.498 16.984,4.400 17.003 C 6.211 17.022,6.336 17.006,6.649 16.732 C 7.073 16.359,7.109 15.743,6.730 15.342 C 6.420 15.014,6.420 15.014,4.613 15.004 C 3.704 14.998,2.885 15.013,2.792 15.036 M25.893 15.011 C 25.864 15.022,25.774 15.045,25.694 15.063 C 25.499 15.106,25.174 15.398,25.085 15.611 C 24.922 16.002,25.028 16.448,25.351 16.732 C 25.664 17.006,25.789 17.022,27.600 17.003 C 29.502 16.984,29.549 16.974,29.833 16.518 C 30.133 16.035,29.979 15.429,29.485 15.146 L 29.253 15.013 27.600 15.002 C 26.691 14.996,25.923 15.000,25.893 15.011 M8.507 22.182 C 8.180 22.334,5.953 24.605,5.867 24.873 C 5.601 25.704,6.441 26.452,7.227 26.085 C 7.553 25.933,9.781 23.661,9.866 23.394 C 10.132 22.563,9.293 21.815,8.507 22.182 M22.622 22.194 C 22.199 22.404,21.985 22.929,22.134 23.394 C 22.219 23.661,24.447 25.933,24.773 26.085 C 25.559 26.452,26.399 25.704,26.133 24.873 C 26.047 24.605,23.820 22.334,23.493 22.182 C 23.211 22.050,22.905 22.054,22.622 22.194 M15.599 25.088 C 15.382 25.182,15.111 25.500,15.039 25.746 C 15.000 25.879,14.986 26.500,14.997 27.600 C 15.016 29.502,15.026 29.549,15.482 29.833 C 15.967 30.134,16.616 29.963,16.875 29.467 C 16.980 29.266,16.988 29.156,17.003 27.600 C 17.014 26.500,17.000 25.879,16.961 25.746 C 16.887 25.494,16.615 25.180,16.389 25.085 C 16.173 24.995,15.809 24.996,15.599 25.088 " fill="#1A1C1F" stroke="none" fill-rule="evenodd"></path></svg>
